X: 17300
T: Hetty O'Hady
R: jig
M: 6/8
K: Gmajor
GBA B2d|edB AGE|GBA B2G|AGG GdB|GBA B2d|edB AGE|GBA B2G|AGG G2D:|
GBd def|gfe fdB|GBd def|gfe def|g/a/ba bge|dBA BGE|GBA B2G|AGG G2D:|

